X:1
T:[ID 7-20a]
T:[ID 7-20a]
T:Bezeichnung standardisiert: Menuett Menuet
T:Urheber unbekannt Datum in der hier transkribierten schriftlichen Quelle: 1776 - 1791
C:Urheber unbekannt
C:Datum in der hier transkribierten schriftlichen Quelle: 1776 - 1791
L:1/8
M:3/4
K:D
V:1 treble 
V:1
 d2 D2 D2 | A2 A,2 A,2 | DFAdfa | g2 (3efg f2 | dg b2 b2 | df a2 a2 | gfgefd | e6 :: a^gaece | %9
 A4 z2 | gfgece | A4 (3efg | fdcdBg | AfGeFd | Ge d2 c2 | d6 :| %16

